_inc/systems/logos/androidapps.svg

<?xml version="1.0" encoding="utf-8"?>
<svg width="100%" height="100%" viewBox="0 0 168 62" version="1.1" style="fill-rule:evenodd;clip-rule:evenodd;stroke-linejoin:round;stroke-miterlimit:2;" xmlns="http://www.w3.org/2000/svg">
  <path d="M 126.235 11.068 C 125.651 11.068 125.17 10.587 125.17 10.003 C 125.17 9.42 125.651 8.939 126.235 8.939 C 126.819 8.939 127.299 9.42 127.299 10.003 C 127.299 10.587 126.819 11.068 126.235 11.068 M 114.515 11.068 C 113.931 11.068 113.45 10.587 113.45 10.003 C 113.45 9.42 113.931 8.939 114.515 8.939 C 115.099 8.939 115.579 9.42 115.579 10.003 C 115.579 10.587 115.099 11.068 114.515 11.068 M 126.612 4.681 L 128.741 1.011 C 128.779 0.945 128.799 0.869 128.799 0.793 C 128.799 0.552 128.6 0.353 128.359 0.353 C 128.2 0.353 128.053 0.44 127.976 0.579 L 125.825 4.293 C 124.116 3.512 122.259 3.111 120.38 3.118 C 118.5 3.113 116.64 3.51 114.925 4.282 L 112.774 0.567 C 112.696 0.431 112.55 0.346 112.393 0.346 C 112.151 0.346 111.953 0.545 111.953 0.786 C 111.953 0.861 111.972 0.934 112.009 1 L 114.127 4.67 C 110.41 6.697 107.962 10.474 107.629 14.694 L 133.098 14.694 C 132.775 10.476 130.329 6.7 126.612 4.681" style="fill:white;fill-rule:nonzero;"/>
  <path d="M 38.983 4.72 C 40.363 4.72 41.51 5.432 42.055 6.2 L 42.055 4.909 L 44.159 4.909 L 44.159 14.493 L 42.645 14.493 C 42.311 14.493 42.044 14.226 42.044 13.892 L 42.044 13.202 C 41.51 13.981 40.363 14.694 38.983 14.694 C 36.356 14.694 34.363 12.445 34.363 9.707 C 34.363 6.968 36.356 4.72 38.983 4.72 M 39.362 6.634 C 37.658 6.634 36.501 7.981 36.501 9.707 C 36.501 11.432 37.647 12.779 39.362 12.779 C 41.065 12.779 42.222 11.432 42.222 9.707 C 42.222 7.981 41.076 6.634 39.362 6.634" style="fill:white;fill-rule:nonzero;"/>
  <path d="M 46.553 4.909 L 48.668 4.909 L 48.668 6.211 C 49.246 5.254 50.337 4.72 51.584 4.72 C 53.81 4.72 55.246 6.289 55.246 8.727 L 55.246 14.493 L 53.732 14.493 C 53.398 14.493 53.131 14.226 53.131 13.892 L 53.131 9.072 C 53.131 7.558 52.363 6.634 51.139 6.634 C 49.736 6.634 48.668 7.725 48.668 9.773 L 48.668 14.493 L 47.154 14.493 C 46.82 14.493 46.553 14.226 46.553 13.892 L 46.553 4.909 Z" style="fill:white;fill-rule:nonzero;"/>
  <path d="M 61.536 4.72 C 62.916 4.72 64.063 5.432 64.608 6.2 L 64.608 0.122 L 66.712 0.122 L 66.712 14.504 L 65.198 14.504 C 64.864 14.504 64.597 14.237 64.597 13.903 L 64.597 13.213 C 64.063 13.981 62.905 14.694 61.525 14.694 C 58.897 14.694 56.905 12.445 56.905 9.707 C 56.916 6.968 58.909 4.72 61.536 4.72 M 61.914 6.634 C 60.211 6.634 59.053 7.981 59.053 9.707 C 59.053 11.432 60.2 12.779 61.914 12.779 C 63.617 12.779 64.775 11.432 64.775 9.707 C 64.775 7.981 63.617 6.634 61.914 6.634" style="fill:white;fill-rule:nonzero;"/>
  <path d="M 69.083 4.909 L 71.209 4.909 L 71.209 6.612 C 71.576 5.521 72.645 4.809 73.736 4.809 C 74.003 4.809 74.27 4.831 74.56 4.887 L 74.56 7.057 C 74.192 6.946 73.892 6.879 73.502 6.879 C 72.289 6.879 71.198 7.892 71.198 9.818 L 71.198 14.493 L 69.684 14.493 C 69.35 14.493 69.083 14.226 69.083 13.892 L 69.083 4.909 Z" style="fill:white;fill-rule:nonzero;"/>
  <path d="M 80.259 14.694 C 77.42 14.694 75.239 12.49 75.239 9.707 C 75.239 6.924 77.42 4.72 80.259 4.72 C 83.097 4.72 85.279 6.924 85.279 9.707 C 85.279 12.49 83.097 14.694 80.259 14.694 M 80.259 12.734 C 81.951 12.734 83.131 11.41 83.131 9.707 C 83.131 8.004 81.94 6.679 80.259 6.679 C 78.556 6.679 77.365 8.004 77.365 9.707 C 77.365 11.41 78.556 12.734 80.259 12.734" style="fill:white;fill-rule:nonzero;"/>
  <path d="M 88.04 2.816 C 87.272 2.816 86.626 2.182 86.626 1.403 C 86.626 0.635 87.283 0 88.04 0 C 88.83 0 89.442 0.635 89.442 1.403 C 89.442 2.193 88.83 2.816 88.04 2.816 M 86.994 4.909 L 89.097 4.909 L 89.097 14.493 L 87.595 14.493 C 87.261 14.493 86.994 14.226 86.994 13.892 L 86.994 4.909 Z" style="fill:white;fill-rule:nonzero;"/>
  <path d="M 95.453 4.72 C 96.834 4.72 97.98 5.432 98.526 6.2 L 98.526 0.122 L 100.63 0.122 L 100.63 14.504 L 99.116 14.504 C 98.782 14.504 98.515 14.237 98.515 13.903 L 98.515 13.213 C 97.98 13.981 96.823 14.694 95.442 14.694 C 92.815 14.694 90.823 12.445 90.823 9.707 C 90.834 6.968 92.826 4.72 95.453 4.72 M 95.843 6.634 C 94.14 6.634 92.982 7.981 92.982 9.707 C 92.982 11.432 94.129 12.779 95.843 12.779 C 97.546 12.779 98.704 11.432 98.704 9.707 C 98.704 7.981 97.546 6.634 95.843 6.634" style="fill:white;fill-rule:nonzero;"/>
  <path d="M 35.282 50.685 C 31.499 50.685 28.31 49.275 25.713 46.456 C 23.154 43.638 21.874 40.226 21.874 36.22 C 21.874 32.215 23.154 28.803 25.713 25.984 C 28.31 23.165 31.499 21.755 35.282 21.755 C 37.174 21.755 38.917 22.182 40.512 23.035 C 42.106 23.851 43.33 24.852 44.183 26.04 L 44.183 22.312 L 50.303 22.312 L 50.303 50.128 L 44.183 50.128 L 44.183 46.401 C 43.33 47.588 42.106 48.608 40.512 49.46 C 38.917 50.277 37.174 50.685 35.282 50.685 Z M 30.442 42.563 C 32 44.268 33.984 45.121 36.394 45.121 C 38.805 45.121 40.789 44.268 42.347 42.563 C 43.905 40.856 44.684 38.742 44.684 36.22 C 44.684 33.698 43.905 31.584 42.347 29.878 C 40.789 28.172 38.805 27.319 36.394 27.319 C 33.984 27.319 32 28.172 30.442 29.878 C 28.884 31.584 28.105 33.698 28.105 36.22 C 28.105 38.742 28.884 40.856 30.442 42.563 Z M 63.669 61.756 L 57.549 61.756 L 57.549 22.312 L 63.669 22.312 L 63.669 26.04 C 64.522 24.852 65.746 23.851 67.34 23.035 C 68.972 22.182 70.734 21.755 72.625 21.755 C 76.409 21.755 79.58 23.165 82.139 25.984 C 84.735 28.803 86.033 32.215 86.033 36.22 C 86.033 40.226 84.735 43.638 82.139 46.456 C 79.58 49.275 76.409 50.685 72.625 50.685 C 70.734 50.685 68.972 50.277 67.34 49.46 C 65.746 48.608 64.522 47.588 63.669 46.401 L 63.669 61.756 Z M 71.513 45.121 C 73.924 45.121 75.908 44.268 77.465 42.563 C 79.023 40.856 79.802 38.742 79.802 36.22 C 79.802 33.698 79.023 31.584 77.465 29.878 C 75.908 28.172 73.924 27.319 71.513 27.319 C 69.065 27.319 67.062 28.172 65.505 29.878 C 63.947 31.584 63.168 33.698 63.168 36.22 C 63.168 38.742 63.947 40.856 65.505 42.563 C 67.062 44.268 69.065 45.121 71.513 45.121 Z M 97.34 61.756 L 91.221 61.756 L 91.221 22.312 L 97.34 22.312 L 97.34 26.04 C 98.193 24.852 99.418 23.851 101.012 23.035 C 102.644 22.182 104.406 21.755 106.297 21.755 C 110.081 21.755 113.252 23.165 115.81 25.984 C 118.406 28.803 119.705 32.215 119.705 36.22 C 119.705 40.226 118.406 43.638 115.81 46.456 C 113.252 49.275 110.081 50.685 106.297 50.685 C 104.406 50.685 102.644 50.277 101.012 49.46 C 99.418 48.608 98.193 47.588 97.34 46.401 L 97.34 61.756 Z M 105.185 45.121 C 107.596 45.121 109.58 44.268 111.137 42.563 C 112.695 40.856 113.474 38.742 113.474 36.22 C 113.474 33.698 112.695 31.584 111.137 29.878 C 109.58 28.172 107.596 27.319 105.185 27.319 C 102.737 27.319 100.734 28.172 99.176 29.878 C 97.618 31.584 96.84 33.698 96.84 36.22 C 96.84 38.742 97.618 40.856 99.176 42.563 C 100.734 44.268 102.737 45.121 105.185 45.121 Z M 134.684 50.685 C 131.383 50.685 128.601 49.868 126.339 48.237 C 124.113 46.605 122.927 44.417 122.778 41.672 L 129.12 41.672 C 129.566 44.417 131.476 45.789 134.851 45.789 C 136.223 45.789 137.318 45.547 138.133 45.066 C 138.949 44.546 139.357 43.805 139.357 42.84 C 139.357 41.876 139.042 41.116 138.412 40.56 C 137.781 40.003 136.723 39.539 135.241 39.169 L 130.678 37.944 C 125.931 36.684 123.558 33.884 123.558 29.544 C 123.558 27.208 124.503 25.334 126.395 23.925 C 128.286 22.479 130.789 21.755 133.905 21.755 C 136.91 21.755 139.376 22.516 141.304 24.037 C 143.233 25.557 144.308 27.578 144.531 30.1 L 138.412 30.1 C 137.818 27.801 136.297 26.651 133.85 26.651 C 132.625 26.651 131.643 26.911 130.901 27.43 C 130.159 27.912 129.788 28.598 129.788 29.489 C 129.788 31.083 131.031 32.196 133.516 32.826 L 138.189 34.051 C 143.122 35.312 145.588 38.111 145.588 42.451 C 145.588 45.084 144.568 47.124 142.528 48.571 C 140.525 49.98 137.911 50.685 134.684 50.685 Z" style="fill:white;fill-rule:nonzero;"/>
</svg>

<svg xmlns="http://www.w3.org/2000/svg" style="fill-rule:evenodd;clip-rule:evenodd;stroke-linejoin:round;stroke-miterlimit:2" viewBox="0 0 168 62"><path d="M126.24 11.07a1.07 1.07 0 0 1-.01-2.13c.58 0 1.07.48 1.07 1.06s-.48 1.07-1.06 1.07m-11.72 0a1.07 1.07 0 0 1-.01-2.13c.58 0 1.07.48 1.07 1.06s-.48 1.07-1.06 1.07m12.1-6.39 2.12-3.67a.44.44 0 1 0-.76-.43l-2.16 3.71a13.2 13.2 0 0 0-10.9-.01L112.78.57a.44.44 0 0 0-.82.22q0 .1.06.21l2.12 3.67a12.6 12.6 0 0 0-6.5 10.02h25.47a12.5 12.5 0 0 0-6.49-10m-87.64.03c1.38 0 2.53.71 3.08 1.48V4.9h2.1v9.6h-1.51a.6.6 0 0 1-.6-.6v-.7a3.8 3.8 0 0 1-3.07 1.5c-2.62 0-4.62-2.25-4.62-5 0-2.73 2-4.98 4.62-4.98m.38 1.91c-1.7 0-2.86 1.35-2.86 3.08 0 1.72 1.15 3.07 2.86 3.07 1.7 0 2.86-1.35 2.86-3.07 0-1.73-1.14-3.08-2.86-3.08m7.19-1.73h2.12v1.31a3.3 3.3 0 0 1 2.91-1.49c2.23 0 3.67 1.57 3.67 4v5.77h-1.52a.6.6 0 0 1-.6-.6V9.07c0-1.51-.77-2.44-2-2.44-1.4 0-2.46 1.1-2.46 3.14v4.72h-1.52a.6.6 0 0 1-.6-.6zm14.99-.18c1.38 0 2.52.71 3.07 1.48V.12h2.1V14.5H65.2a.6.6 0 0 1-.6-.6v-.69a3.8 3.8 0 0 1-3.07 1.48c-2.63 0-4.62-2.24-4.62-4.98s2-4.99 4.63-4.99m.37 1.91c-1.7 0-2.86 1.35-2.86 3.08 0 1.72 1.15 3.07 2.86 3.07 1.7 0 2.87-1.35 2.87-3.07 0-1.73-1.16-3.08-2.87-3.08m7.17-1.73h2.13v1.71a2.7 2.7 0 0 1 2.53-1.8q.39 0 .82.08v2.17a3 3 0 0 0-1.06-.18c-1.21 0-2.3 1.01-2.3 2.94v4.67h-1.52a.6.6 0 0 1-.6-.6zm11.18 9.8a4.94 4.94 0 0 1-5.02-5 4.94 4.94 0 0 1 5.02-4.98c2.84 0 5.02 2.2 5.02 4.99a4.94 4.94 0 0 1-5.02 4.98m0-1.96c1.7 0 2.87-1.32 2.87-3.02s-1.19-3.03-2.87-3.03c-1.7 0-2.9 1.32-2.9 3.03s1.2 3.02 2.9 3.02m7.78-9.91c-.77 0-1.41-.64-1.41-1.42 0-.76.65-1.4 1.41-1.4.79 0 1.4.64 1.4 1.4a1.4 1.4 0 0 1-1.4 1.42M86.99 4.9h2.1v9.58h-1.5a.6.6 0 0 1-.6-.6zm8.46-.18c1.38 0 2.53.71 3.08 1.48V.12h2.1V14.5h-1.51a.6.6 0 0 1-.6-.6v-.69a3.8 3.8 0 0 1-3.08 1.48c-2.62 0-4.62-2.24-4.62-4.98.01-2.74 2-4.99 4.63-4.99m.4 1.91c-1.71 0-2.87 1.35-2.87 3.08 0 1.72 1.15 3.07 2.86 3.07 1.7 0 2.86-1.35 2.86-3.07 0-1.73-1.15-3.08-2.86-3.08M35.28 50.69a12.5 12.5 0 0 1-9.57-4.23 14.7 14.7 0 0 1-3.84-10.24q0-6 3.84-10.24a12.5 12.5 0 0 1 9.57-4.23q2.85 0 5.23 1.29 2.4 1.21 3.67 3v-3.73h6.12v27.82h-6.12V46.4a10.5 10.5 0 0 1-3.67 3.06 11 11 0 0 1-5.23 1.23m-4.84-8.13a7.7 7.7 0 0 0 5.95 2.56 7.7 7.7 0 0 0 5.96-2.56 9 9 0 0 0 2.33-6.34q0-3.78-2.33-6.34a7.7 7.7 0 0 0-5.96-2.56 7.7 7.7 0 0 0-5.95 2.56 9 9 0 0 0-2.34 6.34q0 3.78 2.34 6.34m33.23 19.2h-6.12V22.3h6.12v3.73a10 10 0 0 1 3.67-3q2.45-1.28 5.28-1.28 5.68 0 9.52 4.22 3.9 4.23 3.9 10.24t-3.9 10.24a12.3 12.3 0 0 1-9.51 4.23q-2.85 0-5.29-1.23a10.5 10.5 0 0 1-3.67-3.06zm7.84-16.64a7.7 7.7 0 0 0 5.95-2.56 9 9 0 0 0 2.34-6.34q0-3.78-2.33-6.34a7.7 7.7 0 0 0-5.96-2.56q-3.67 0-6 2.56a9 9 0 0 0-2.34 6.34q0 3.78 2.33 6.34a7.8 7.8 0 0 0 6.01 2.56m25.83 16.64h-6.12V22.3h6.12v3.73a10 10 0 0 1 3.67-3q2.45-1.28 5.29-1.28 5.67 0 9.51 4.22 3.9 4.23 3.9 10.24t-3.9 10.24a12.3 12.3 0 0 1-9.51 4.23q-2.85 0-5.29-1.23a10.5 10.5 0 0 1-3.67-3.06zm7.84-16.64a7.7 7.7 0 0 0 5.96-2.56 9 9 0 0 0 2.33-6.34q0-3.78-2.33-6.34a7.7 7.7 0 0 0-5.95-2.56q-3.68 0-6.01 2.56a9 9 0 0 0-2.34 6.34q0 3.78 2.34 6.34a7.8 7.8 0 0 0 6 2.56m29.5 5.57q-4.95 0-8.34-2.45a8.3 8.3 0 0 1-3.56-6.57h6.34q.68 4.12 5.73 4.12 2.06 0 3.28-.72a2.5 2.5 0 0 0 1.23-2.23q0-1.44-.95-2.28a8 8 0 0 0-3.17-1.4l-4.56-1.22q-7.12-1.89-7.12-8.4 0-3.5 2.83-5.61 2.85-2.18 7.52-2.18 4.5 0 7.4 2.29a8.3 8.3 0 0 1 3.22 6.06h-6.12q-.9-3.45-4.56-3.45-1.83 0-2.95.78a2.3 2.3 0 0 0-1.11 2.06q0 2.39 3.73 3.34l4.67 1.22q7.4 1.89 7.4 8.4a7.1 7.1 0 0 1-3.06 6.12q-3 2.12-7.85 2.12" style="fill:#fff;fill-rule:nonzero"/></svg>
